src/r/00a0-024f_1e00-1eff_latin/024f_y-stroke.svg

<?xml version="1.0" encoding="UTF-8" standalone="no"?>
<!-- Created with Inkscape (http://www.inkscape.org/) -->

<svg
   xmlns:dc="http://purl.org/dc/elements/1.1/"
   xmlns:cc="http://creativecommons.org/ns#"
   xmlns:rdf="http://www.w3.org/1999/02/22-rdf-syntax-ns#"
   xmlns:svg="http://www.w3.org/2000/svg"
   xmlns="http://www.w3.org/2000/svg"
   version="1.1"
   width="1024"
   height="2048"
   id="svg3355">
  <defs
     id="defs3357" />
  <metadata
     id="metadata3360">
    <rdf:RDF>
      <cc:Work
         rdf:about="">
        <dc:format>image/svg+xml</dc:format>
        <dc:type
           rdf:resource="http://purl.org/dc/dcmitype/StillImage" />
        <dc:title></dc:title>
      </cc:Work>
    </rdf:RDF>
  </metadata>
  <path
     d="m 128,512 0,458 c 0,197.0019 147.00208,318 384,318 131.99735,0 214,-16 214,-16 l 0,107 -278,0 0,157 247,0 c -46.88592,72.1328 -144.83571,99 -279,99 l -192,0 0,149 c 0,0 73.00044,16 192,16 251.15063,0 420.61401,-68.645 467,-264 l 141,0 0,-157 -128,0 0,-867 -170,0 0,611 -214,0 c -131.99707,0 -214,-58.0029 -214,-153 l 0,-458 z"
     id="path3157-2-7-7-2-8-2-3-1-0"
     style="fill:#000000;fill-opacity:1;stroke:none;display:inline" />
</svg>

<?xml version="1.0" encoding="UTF-8" standalone="no"?>
<svg
   xmlns:dc="http://purl.org/dc/elements/1.1/"
   xmlns:cc="http://creativecommons.org/ns#"
   xmlns:rdf="http://www.w3.org/1999/02/22-rdf-syntax-ns#"
   xmlns:svg="http://www.w3.org/2000/svg"
   xmlns="http://www.w3.org/2000/svg"
   version="1.1"
   width="1024"
   height="2048"
   id="svg3355">
  <defs
     id="defs3357" />
  <metadata
     id="metadata3360">
    <rdf:RDF>
      <cc:Work
         rdf:about="">
        <dc:format>image/svg+xml</dc:format>
        <dc:type
           rdf:resource="http://purl.org/dc/dcmitype/StillImage" />
        <dc:title></dc:title>
      </cc:Work>
    </rdf:RDF>
  </metadata>
  <path
     id="path3157-2-7-7-2-8-2-3-1-0"
     style="display:inline;fill:#000000;fill-opacity:1;stroke:none"
     d="m 128,512 v 458 c 0,191.9982 147.00208,310 384,310 h 214 v 99 H 448 v 157 h 247 c -46.88338,72.1402 -144.82956,99 -279,99 H 224 v 149 c 0,0 73.00044,16 192,16 251.14687,0 420.61102,-68.6517 467,-264 h 141 V 1379 H 896 V 512 H 726 v 611 H 512 C 380.00293,1123 298,1064.9971 298,970 V 512 Z" />
</svg>
